X: 1
T: Mooney's
T: Paddy Ryan's Dream (Donegal Version)
M: 4/4
L: 1/8
R: reel
S: Tommy Peoples
Z: what!!
K: Amix
ed |: cA A/A/A cABG | EGD=C B,CDB, | =CA,B,G, A,B,CD | EA^GB Aced |
| cA A/2A/2A cABG | EGD=C B,CDB, | =CA,B,G, A,B,CD |1 EA^GB Aced :|2 EA^GB Aef^g ||
|: a^gae ceAf | gfgd BFGB | A^gae cBAc | B^GED CEA^g |
| a^gae ceAf | gfgd BGBd | cBcd edcB |1 Aa^gb aef^g :|2 Aa^gb a2ed ||
